vsi/file-zip_light.svg

<svg viewBox="0 0 16 16" fill="none" xmlns="http://www.w3.org/2000/svg" height="1em" width="1em">
  <path fill-rule="evenodd" clip-rule="evenodd" d="M2.50024 1H13.5002L14.0002 1.5V6.5L13.8502 6.85L13.0002 7.71V14.5L12.5002 15H2.50024L2.00024 14.5V1.5L2.50024 1ZM6.00024 2H5.00024V4H6.00024V2ZM6.00024 14H10.0002V7.68L9.15024 6.83L9.00024 6.47V2H7.00024V4.5L6.50024 5H6.00024V6H5.00024V5H4.50024L4.00024 4.5V2H3.00024V14H5.00024V13H6.00024V14ZM6.00024 12V13H7.00024V12H6.00024ZM6.00024 11V12H5.00024V11H6.00024ZM6.00024 10H7.00024V11H6.00024V10ZM6.00024 9V10H5.00024V9H6.00024ZM6.00024 8H7.00024V9H6.00024V8ZM6.00024 7V8H5.00024V7H6.00024ZM6.00024 7H7.00024V6H6.00024V7ZM12.1502 7.15L13.0002 6.29V2H10.0002V6.27L10.8502 7.12L11.0002 7.47V14H12.0002V7.5L12.1502 7.15Z" fill="#424242"/>
</svg>

<svg viewBox="0 0 16 16" fill="none" xmlns="http://www.w3.org/2000/svg" height="1em" width="1em">
  <path fill-rule="evenodd" clip-rule="evenodd" d="M2.5 1h11l.5.5v5l-.15.35-.85.86v6.79l-.5.5h-10l-.5-.5v-13l.5-.5ZM6 2H5v2h1V2Zm0 12h4V7.68l-.85-.85L9 6.47V2H7v2.5l-.5.5H6v1H5V5h-.5L4 4.5V2H3v12h2v-1h1v1Zm0-2v1h1v-1H6Zm0-1v1H5v-1h1Zm0-1h1v1H6v-1Zm0-1v1H5V9h1Zm0-1h1v1H6V8Zm0-1v1H5V7h1Zm0 0h1V6H6v1Zm6.15.15.85-.86V2h-3v4.27l.85.85.15.35V14h1V7.5l.15-.35Z" fill="#424242"/>
</svg>
